symbolic/24x24/actions/call-stop.svg

<svg xmlns="http://www.w3.org/2000/svg" width="24" height="24" version="1.1">
 <defs>
  <style id="current-color-scheme" type="text/css">
   .ColorScheme-Text { color:#323a41; } .ColorScheme-Highlight { color:#4285f4; } .ColorScheme-NeutralText { color:#ff9800; } .ColorScheme-PositiveText { color:#4caf50; } .ColorScheme-NegativeText { color:#f44336; }
  </style>
 </defs>
 <g transform="matrix(1,0,0,1,4,4)">
  <path style="fill:currentColor" class="ColorScheme-NegativeText" d="M 6,15 C 7,15 7,14 7,14 V 12 C 7,12 7,11 6,11 H 5.527 C 6.4331,8.4435 8.4439,6.4321 11,5.525 V 6 C 11,7 12,7 12,7 H 14 C 14,7 15,7 15,6 V 3 C 15,2 14,2 14,2 7.3726,2 2,7.3726 2,14 2,14 2,15 3,15 Z"/>
 </g>
</svg>

<svg xmlns="http://www.w3.org/2000/svg" width="24" height="24"><defs><style id="current-color-scheme" type="text/css"></style></defs><path style="fill:currentColor;color:#f44336" d="M6 15c1 0 1-1 1-1v-2s0-1-1-1h-.473A9 9 0 0 1 11 5.525V6c0 1 1 1 1 1h2s1 0 1-1V3c0-1-1-1-1-1C7.373 2 2 7.373 2 14c0 0 0 1 1 1z" transform="translate(4 4)"/></svg>
